X: 1354
T: Coming Down the Mountain
C:trad
B: australian traditional tunes wiki
M:4/4
L:1/8
R: Reel
Q: 1/4=100
K:D
V:1 
(3dcB|: "D"AF EF D2EF|"Em"GF ED "Bm"B,2A,B,|1"D"DC DF "G"BG FG|"D"F2E2"A7"E2(3EFG:|2"D"DC DF "A7"BG FG|"D"(3FGF D2D2 ||
|:FG|"D"A2dBA2FG|A2dBA2FG|"G"BA Bc "D"dc BA|"Bm"F2B2B2(3dcB |
"D"AF EFD2 EF|"Em"GF ED "Bm"B,2A,B,|"D"DC DF "A7"BG FG|1"D"(3FGF D2D2:|2"D"(3FGF D2D2||
% abcbook-tune_id 6342d53af66d21e51a5c97ec


% abcbook-boost 0
% abcbook-tablature 
% abcbook-transpose 
% abcbook-lastupdated 1665324360707
% abcbook-soundfonts 
% abcbook-repeats 1
% NFF Book 2007

